24x24/apps/appimagekit-devhub.svg

<svg xmlns="http://www.w3.org/2000/svg" width="24" height="24" version="1.1">
 <circle style="opacity:0.2" cx="12.5" cy="12" r="10.5"/>
 <circle style="fill:#44c7aa" cx="12.5" cy="11.5" r="10.5"/>
 <path style="opacity:0.1" d="M 8.5839844,8.4998791 C 8.3462027,8.4993458 8.2033961,8.5146481 7.9941406,8.5467541 7.0894474,8.6855703 6.546446,8.9518559 6.0488281,9.497926 c -0.5121,0.561963 -0.8076951,1.105936 -0.9707031,1.787109 -0.08002,0.334388 -0.089325,0.464285 -0.068359,1.03711 0.029506,0.806083 0.1220522,1.210985 0.4140625,1.824218 0.4556102,0.956797 1.0505168,1.509449 1.9628907,1.824219 0.6155237,0.212357 1.8917927,0.432583 2.8925778,0.498047 1.00645,0.06584 4.500278,0.02054 5.166015,-0.06641 1.240083,-0.16194 2.241932,-0.431336 2.835938,-0.761719 0.52391,-0.291395 1.151961,-1.068045 1.414062,-1.75 0.165837,-0.431486 0.268155,-0.969653 0.296876,-1.546875 0.03434,-0.69017 -0.04489,-1.145838 -0.300782,-1.714844 C 19.222775,9.5867418 18.383973,8.8225187 17.460938,8.5936291 17.008519,8.4814838 15.453723,8.4818656 13.824219,8.5955822 12.502503,8.6877983 12.028163,8.6827084 9.7421875,8.5506603 9.1542403,8.5166762 8.8217663,8.5004306 8.5839844,8.4998791 Z M 9.5,10.499879 c 0.82843,1.3e-5 1.5,0.895439 1.5,2 0,1.10456 -0.67157,1.999987 -1.5,2 -0.8284297,-1.3e-5 -1.4999996,-0.89544 -1.5,-2 4e-7,-1.104561 0.6715703,-1.999987 1.5,-2 z m 6,0 c 0.82843,1.3e-5 1.5,0.895439 1.5,2 0,1.10456 -0.67157,1.999987 -1.5,2 -0.82843,-1.3e-5 -1.5,-0.89544 -1.5,-2 0,-1.104561 0.67157,-1.999987 1.5,-2 z"/>
 <path style="fill:#2c3638" d="M 8.5839844,7.9998806 C 8.3462027,7.9993473 8.2033961,8.0146496 7.9941406,8.0467556 7.0894474,8.1855718 6.546446,8.4518574 6.0488281,8.9979275 5.5367281,9.5598903 5.241133,10.103864 5.078125,10.785037 c -0.08002,0.334388 -0.089325,0.464285 -0.068359,1.03711 0.029506,0.806083 0.1220522,1.210985 0.4140625,1.824218 0.4556102,0.956797 1.0505168,1.509449 1.9628907,1.824219 0.6155237,0.212357 1.8917927,0.432583 2.8925778,0.498047 1.00645,0.06584 4.500278,0.02054 5.166015,-0.06641 1.240083,-0.16194 2.241932,-0.431336 2.835938,-0.761719 0.52391,-0.291395 1.151961,-1.068045 1.414062,-1.75 0.165837,-0.431486 0.268155,-0.969653 0.296876,-1.546875 0.03434,-0.69017 -0.04489,-1.145838 -0.300782,-1.714844 C 19.222775,9.0867433 18.383973,8.3225202 17.460938,8.0936306 17.008519,7.9814853 15.453723,7.9818671 13.824219,8.0955837 12.502503,8.1877998 12.028163,8.1827099 9.7421875,8.0506618 9.1542403,8.0166777 8.8217663,8.0004321 8.5839844,7.9998806 Z m 0.9160156,2 c 0.82843,1.3e-5 1.5,0.8954394 1.5,2.0000004 0,1.10456 -0.67157,1.999987 -1.5,2 -0.8284297,-1.3e-5 -1.4999996,-0.89544 -1.5,-2 4e-7,-1.104561 0.6715703,-1.9999874 1.5,-2.0000004 z m 6,0 c 0.82843,1.3e-5 1.5,0.8954394 1.5,2.0000004 0,1.10456 -0.67157,1.999987 -1.5,2 -0.82843,-1.3e-5 -1.5,-0.89544 -1.5,-2 0,-1.104561 0.67157,-1.9999874 1.5,-2.0000004 z"/>
 <path style="fill:#f4f4f7;opacity:0.2" d="M 12.5 1 A 10.5 10.5 0 0 0 2 11.5 A 10.5 10.5 0 0 0 2.0097656 11.796875 A 10.5 10.5 0 0 1 12.5 1.5 A 10.5 10.5 0 0 1 22.990234 11.703125 A 10.5 10.5 0 0 0 23 11.5 A 10.5 10.5 0 0 0 12.5 1 z"/>
</svg>

<svg xmlns="http://www.w3.org/2000/svg" width="24" height="24"><circle style="opacity:.2" cx="12.5" cy="12" r="10.5"/><circle style="fill:#44c7aa" cx="12.5" cy="11.5" r="10.5"/><path style="opacity:.1" d="M8.584 8.5c-.238 0-.38.015-.59.047-.905.139-1.448.405-1.945.95-.512.563-.808 1.107-.97 1.788-.08.334-.09.464-.07 1.037.03.806.123 1.211.415 1.824.455.957 1.05 1.51 1.963 1.825.615.212 1.892.432 2.892.498 1.007.065 4.5.02 5.166-.067 1.24-.162 2.242-.431 2.836-.762.524-.29 1.152-1.068 1.414-1.75.166-.431.268-.97.297-1.546.035-.69-.045-1.146-.3-1.715-.47-1.042-1.308-1.806-2.231-2.035-.452-.113-2.007-.112-3.637.002-1.321.092-1.796.087-4.082-.045-.588-.034-.92-.05-1.158-.051zm.916 2c.828 0 1.5.895 1.5 2 0 1.104-.672 2-1.5 2s-1.5-.896-1.5-2c0-1.105.672-2 1.5-2zm6 0c.828 0 1.5.895 1.5 2 0 1.104-.672 2-1.5 2s-1.5-.896-1.5-2c0-1.105.672-2 1.5-2z"/><path style="fill:#2c3638" d="M8.584 8c-.238 0-.38.015-.59.047-.905.139-1.448.405-1.945.95-.512.563-.808 1.107-.97 1.788-.08.334-.09.464-.07 1.037.03.806.123 1.211.415 1.824.455.957 1.05 1.51 1.963 1.825.615.212 1.892.432 2.892.498 1.007.065 4.5.02 5.166-.067 1.24-.162 2.242-.431 2.836-.761.524-.292 1.152-1.069 1.414-1.75.166-.432.268-.97.297-1.547.035-.69-.045-1.146-.3-1.715-.47-1.042-1.308-1.806-2.231-2.035-.452-.113-2.007-.112-3.637.002-1.321.092-1.796.087-4.082-.045C9.154 8.017 8.822 8 8.584 8zm.916 2c.828 0 1.5.895 1.5 2 0 1.104-.672 2-1.5 2S8 13.104 8 12c0-1.105.672-2 1.5-2zm6 0c.828 0 1.5.895 1.5 2 0 1.104-.672 2-1.5 2s-1.5-.896-1.5-2c0-1.105.672-2 1.5-2z"/><path style="fill:#f4f4f7;opacity:.2" d="M12.5 1A10.5 10.5 0 0 0 2 11.5a10.5 10.5 0 0 0 .01.297A10.5 10.5 0 0 1 12.5 1.5a10.5 10.5 0 0 1 10.49 10.203A10.5 10.5 0 0 0 23 11.5 10.5 10.5 0 0 0 12.5 1z"/></svg>
